X:730
T:Reel 730
M:4/4
K:Amix
L:1/8
AB|c2ec B2GB|AGED B,A,A,D|G2ED EFGB|A2BA GEDF|EGAc dBAG|AcBA GEEF|GABc dGBA|GEDB, A,2|Bc|d2dB G2BG|AcBA GEEd|cdec B2dB|AcBA GEEF|GFGB A2AB|BABc d2cd|ecdB cABG|A2ED B,A,A,2|
